theme/icons/tags.svg

<?xml version="1.0" encoding="utf-8"?>
<!-- Generated by IcoMoon.io -->
<!DOCTYPE svg PUBLIC "-//W3C//DTD SVG 1.1//EN" "http://www.w3.org/Graphics/SVG/1.1/DTD/svg11.dtd">
<svg version="1.1" xmlns="http://www.w3.org/2000/svg" xmlns:xlink="http://www.w3.org/1999/xlink" width="20" height="20" viewBox="0 0 20 20">
<path fill="#444444" d="M19.25 0h-6c-0.412 0-0.989 0.239-1.28 0.53l-7.439 7.439c-0.292 0.292-0.292 0.769 0 1.061l6.439 6.439c0.292 0.292 0.769 0.292 1.061 0l7.439-7.439c0.292-0.292 0.53-0.868 0.53-1.28v-6c0-0.412-0.337-0.75-0.75-0.75zM15.5 6c-0.828 0-1.5-0.672-1.5-1.5s0.672-1.5 1.5-1.5 1.5 0.672 1.5 1.5-0.672 1.5-1.5 1.5z"></path>
<path fill="#444444" d="M2 8.5l8.5-8.5h-1.25c-0.412 0-0.989 0.239-1.28 0.53l-7.439 7.439c-0.292 0.292-0.292 0.769 0 1.061l6.439 6.439c0.292 0.292 0.769 0.292 1.061 0l0.47-0.47-6.5-6.5z"></path>
</svg>

<svg xmlns="http://www.w3.org/2000/svg" width="20" height="20" viewBox="0 0 20 20"><path fill="#444" d="M19.25 0h-6c-.412 0-.99.24-1.28.53L4.53 7.97c-.29.29-.29.768 0 1.06l6.44 6.44c.292.29.77.29 1.06 0l7.44-7.44c.292-.292.53-.868.53-1.28v-6c0-.412-.337-.75-.75-.75zM15.5 6c-.828 0-1.5-.672-1.5-1.5S14.672 3 15.5 3s1.5.672 1.5 1.5S16.328 6 15.5 6z"/><path fill="#444" d="M2 8.5L10.5 0H9.25c-.412 0-.99.24-1.28.53L.53 7.97c-.29.29-.29.768 0 1.06l6.44 6.44c.292.29.77.29 1.06 0L8.5 15 2 8.5z"/></svg>
